icons/logos/vk_b.svg

<svg width="100" height="100" viewBox="0 0 100 100" fill="none" xmlns="http://www.w3.org/2000/svg">
<path d="M0 48C0 25.3726 0 14.0589 7.02944 7.02944C14.0589 0 25.3726 0 48 0H52C74.6274 0 85.9411 0 92.9706 7.02944C100 14.0589 100 25.3726 100 48V52C100 74.6274 100 85.9411 92.9706 92.9706C85.9411 100 74.6274 100 52 100H48C25.3726 100 14.0589 100 7.02944 92.9706C0 85.9411 0 74.6274 0 52V48Z" fill="black"/>
<path d="M53.2082 72.042C30.4165 72.042 17.4167 56.417 16.875 30.417H28.2916C28.6666 49.5003 37.0831 57.5836 43.7498 59.2503V30.417H54.5001V46.8752C61.0835 46.1669 67.9993 38.667 70.3326 30.417H81.083C79.2913 40.5837 71.7913 48.0836 66.4579 51.1669C71.7913 53.6669 80.3334 60.2086 83.5834 72.042H71.7497C69.208 64.1253 62.8751 58.0003 54.5001 57.1669V72.042H53.2082Z" fill="white"/>
</svg>

<?xml version="1.0" encoding="UTF-8"?>
<svg id="Layer_1" xmlns="http://www.w3.org/2000/svg" version="1.1" viewBox="0 0 100 100">
  <!-- Generator: Adobe Illustrator 29.5.1, SVG Export Plug-In . SVG Version: 2.1.0 Build 141)  -->
  <path d="M92.97,7.03C85.94,0,74.63,0,52,0h-4C25.37,0,14.06,0,7.03,7.03,0,14.06,0,25.37,0,48v4c0,22.63,0,33.94,7.03,40.97,7.03,7.03,18.34,7.03,40.97,7.03h4c22.63,0,33.94,0,40.97-7.03,7.03-7.03,7.03-18.34,7.03-40.97v-4c0-22.63,0-33.94-7.03-40.97ZM71.75,72.04c-2.54-7.92-8.87-14.04-17.25-14.88v14.88h-1.29c-22.79,0-35.79-15.62-36.33-41.62h11.42c.38,19.08,8.79,27.17,15.46,28.83v-28.83h10.75v16.46c6.58-.71,13.5-8.21,15.83-16.46h10.75c-1.79,10.17-9.29,17.67-14.63,20.75,5.33,2.5,13.88,9.04,17.13,20.88h-11.83Z"/>
</svg>
